mimes/64/text-x-install.svg

<?xml version="1.0" encoding="UTF-8" standalone="no"?>
<svg
   xmlns:dc="http://purl.org/dc/elements/1.1/"
   xmlns:cc="http://creativecommons.org/ns#"
   xmlns:rdf="http://www.w3.org/1999/02/22-rdf-syntax-ns#"
   xmlns:svg="http://www.w3.org/2000/svg"
   xmlns="http://www.w3.org/2000/svg"
   xmlns:xlink="http://www.w3.org/1999/xlink"
   version="1.1"
   width="64"
   height="64"
   id="svg3143">
  <defs
     id="defs3145">
    <linearGradient
       x1="11.703956"
       y1="21.465137"
       x2="11.703956"
       y2="7.465137"
       id="linearGradient3086"
       xlink:href="#linearGradient4299-652-5-2"
       gradientUnits="userSpaceOnUse"
       gradientTransform="translate(16.223867,24.534863)" />
    <linearGradient
       id="linearGradient4299-652-5-2">
      <stop
         id="stop3618-8-5"
         style="stop-color:#ffffff;stop-opacity:1"
         offset="0" />
      <stop
         id="stop3620-9-7"
         style="stop-color:#ffffff;stop-opacity:0"
         offset="1" />
    </linearGradient>
    <linearGradient
       x1="302.85715"
       y1="366.64789"
       x2="302.85715"
       y2="609.50507"
       id="linearGradient3842"
       xlink:href="#linearGradient5048"
       gradientUnits="userSpaceOnUse"
       gradientTransform="matrix(0.09153846,0,0,0.02058823,-1.084616,49.45142)" />
    <linearGradient
       id="linearGradient5048">
      <stop
         id="stop5050"
         style="stop-color:#000000;stop-opacity:0"
         offset="0" />
      <stop
         id="stop5056"
         style="stop-color:#000000;stop-opacity:1"
         offset="0.5" />
      <stop
         id="stop5052"
         style="stop-color:#000000;stop-opacity:0"
         offset="1" />
    </linearGradient>
    <radialGradient
       cx="605.71429"
       cy="486.64789"
       r="117.14286"
       fx="605.71429"
       fy="486.64789"
       id="radialGradient3156"
       xlink:href="#linearGradient5060"
       gradientUnits="userSpaceOnUse"
       gradientTransform="matrix(-0.03132632,0,0,0.02058823,28.779136,49.45142)" />
    <linearGradient
       id="linearGradient5060">
      <stop
         id="stop5062"
         style="stop-color:#000000;stop-opacity:1"
         offset="0" />
      <stop
         id="stop5064"
         style="stop-color:#000000;stop-opacity:0"
         offset="1" />
    </linearGradient>
    <radialGradient
       cx="605.71429"
       cy="486.64789"
       r="117.14286"
       fx="605.71429"
       fy="486.64789"
       id="radialGradient3153"
       xlink:href="#linearGradient5060"
       gradientUnits="userSpaceOnUse"
       gradientTransform="matrix(0.03132633,0,0,0.02058823,35.220859,49.45142)" />
    <linearGradient
       x1="25.132275"
       y1="0.98520643"
       x2="25.132275"
       y2="47.013336"
       id="linearGradient3096"
       xlink:href="#linearGradient3600-9"
       gradientUnits="userSpaceOnUse"
       gradientTransform="matrix(1.3142827,0,0,1.2602393,0.4572141,-2.1793201)" />
    <linearGradient
       id="linearGradient3600-9">
      <stop
         id="stop3602-3"
         style="stop-color:#f4f4f4;stop-opacity:1"
         offset="0" />
      <stop
         id="stop3604-7"
         style="stop-color:#dbdbdb;stop-opacity:1"
         offset="1" />
    </linearGradient>
    <linearGradient
       x1="23.99999"
       y1="5.8641062"
       x2="23.99999"
       y2="42.100208"
       id="linearGradient3093"
       xlink:href="#linearGradient3977-4"
       gradientUnits="userSpaceOnUse"
       gradientTransform="matrix(1.2162162,0,0,1.5405376,2.8108184,-6.9729501)" />
    <linearGradient
       id="linearGradient3977-4">
      <stop
         id="stop3979-7"
         style="stop-color:#ffffff;stop-opacity:1"
         offset="0" />
      <stop
         id="stop3981-6"
         style="stop-color:#ffffff;stop-opacity:0.23529412"
         offset="0.01214366" />
      <stop
         id="stop3983-5"
         style="stop-color:#ffffff;stop-opacity:0.15686275"
         offset="0.98781353" />
      <stop
         id="stop3985-6"
         style="stop-color:#ffffff;stop-opacity:0.39215687"
         offset="1" />
    </linearGradient>
    <linearGradient
       id="linearGradient3104-6">
      <stop
         id="stop3106-3"
         style="stop-color:#000000;stop-opacity:0.31782946"
         offset="0" />
      <stop
         id="stop3108-9"
         style="stop-color:#000000;stop-opacity:0.24031007"
         offset="1" />
    </linearGradient>
    <linearGradient
       x1="-51.786404"
       y1="50.786446"
       x2="-51.786404"
       y2="2.9062471"
       id="linearGradient3141"
       xlink:href="#linearGradient3104-6"
       gradientUnits="userSpaceOnUse"
       gradientTransform="matrix(1.0843523,0,0,1.1997367,79.550862,-4.1628601)" />
  </defs>
  <metadata
     id="metadata3148">
    <rdf:RDF>
      <cc:Work
         rdf:about="">
        <dc:format>image/svg+xml</dc:format>
        <dc:type
           rdf:resource="http://purl.org/dc/dcmitype/StillImage" />
        <dc:title />
      </cc:Work>
    </rdf:RDF>
  </metadata>
  <g
     id="layer1">
    <g
       id="layer1-3">
      <rect
         width="44.199997"
         height="5"
         x="9.8999996"
         y="57.000004"
         id="rect2879"
         style="opacity:0.3;fill:url(#linearGradient3842);fill-opacity:1;fill-rule:nonzero;stroke:none;stroke-width:1;marker:none;visibility:visible;display:inline;overflow:visible" />
      <path
         d="m 9.9,57.00022 c 0,0 0,4.9997 0,4.9997 -1.6132281,0.01 -3.9,-1.1202 -3.9,-2.5002 0,-1.38 1.8002408,-2.4995 3.9,-2.4995 z"
         id="path2881"
         style="opacity:0.3;fill:url(#radialGradient3156);fill-opacity:1;fill-rule:nonzero;stroke:none;stroke-width:1;marker:none;visibility:visible;display:inline;overflow:visible" />
      <path
         d="m 54.099999,57.00022 c 0,0 0,4.9997 0,4.9997 C 55.713227,62.00992 58,60.87972 58,59.49972 c 0,-1.38 -1.800241,-2.4995 -3.900001,-2.4995 z"
         id="path2883"
         style="opacity:0.3;fill:url(#radialGradient3153);fill-opacity:1;fill-rule:nonzero;stroke:none;stroke-width:1;marker:none;visibility:visible;display:inline;overflow:visible" />
      <path
         d="m 9,0.9998799 c 10.540935,0 45.999945,0.004 45.999945,0.004 L 55,59.00002 c 0,0 -30.666666,0 -46,0 0,-19.3334 0,-38.6665 0,-57.9998201 z"
         id="path4160-6"
         style="fill:url(#linearGradient3096);fill-opacity:1;stroke:none;display:inline" />
      <path
         d="m 54.499999,58.50002 -44.9999992,0 0,-57.0000401 44.9999992,0 z"
         id="rect6741-1-8"
         style="fill:none;stroke:url(#linearGradient3093);stroke-width:1;stroke-linecap:round;stroke-linejoin:miter;stroke-miterlimit:4;stroke-opacity:1;stroke-dasharray:none;stroke-dashoffset:0" />
      <path
         d="m 8.4999684,0.4998999 c 10.7700936,0 47.0000286,0.004 47.0000286,0.004 l 4.9e-5,58.9962201 c 0,0 -31.333384,0 -47.0000776,0 0,-19.6668 0,-39.3334 0,-58.9999701 z"
         id="path4160-6-1"
         style="fill:none;stroke:url(#linearGradient3141);stroke-width:0.9999218;stroke-linecap:butt;stroke-linejoin:round;stroke-miterlimit:4;stroke-opacity:1;stroke-dasharray:none;stroke-dashoffset:0;display:inline" />
    </g>
    <path
       d="M 43,31.5 32.07376,44.5 21,31.5 l 7.5,0 0,-11.931146 7,0 0,11.931146 z"
       id="path3288-2-2"
       style="color:#000000;fill:#bebebe;fill-opacity:1;fill-rule:nonzero;stroke:#a0a0a0;stroke-width:0.99999994;stroke-linecap:round;stroke-linejoin:round;stroke-miterlimit:4;stroke-opacity:1;stroke-dasharray:none;stroke-dashoffset:0;marker:none;visibility:visible;display:inline;overflow:visible;enable-background:accumulate" />
    <path
       d="m 20.805979,30.55248 c -0.846291,0.147838 -1.015814,1.313913 -0.362022,1.800442 3.673648,4.298738 7.312969,8.630389 11.008048,12.908579 0.600172,0.507397 1.361931,0.03406 1.697679,-0.537272 3.550952,-4.227381 7.115721,-8.44391 10.658049,-12.678066 0.50322,-0.698406 -0.215927,-1.686502 -1.032194,-1.514917 z"
       id="path3050"
       style="opacity:0.6;color:#000000;fill:none;stroke:url(#linearGradient3086);stroke-width:1;stroke-linecap:round;stroke-linejoin:miter;stroke-miterlimit:4;stroke-opacity:1;stroke-dasharray:none;stroke-dashoffset:0;marker:none;visibility:visible;display:inline;overflow:visible;enable-background:accumulate" />
  </g>
</svg>

<svg xmlns="http://www.w3.org/2000/svg" xmlns:xlink="http://www.w3.org/1999/xlink" viewBox="0 0 64 64"><defs><linearGradient x1="11.704" y1="21.465" x2="11.704" y2="7.465" id="m" xlink:href="#a" gradientUnits="userSpaceOnUse" gradientTransform="translate(16.224 24.535)"/><linearGradient id="a"><stop offset="0" stop-color="#fff"/><stop offset="1" stop-color="#fff" stop-opacity="0"/></linearGradient><linearGradient x1="302.857" y1="366.648" x2="302.857" y2="609.505" id="g" xlink:href="#b" gradientUnits="userSpaceOnUse" gradientTransform="matrix(.09154 0 0 .0206 -1.085 49.45)"/><linearGradient id="b"><stop offset="0" stop-opacity="0"/><stop offset=".5"/><stop offset="1" stop-opacity="0"/></linearGradient><radialGradient cx="605.714" cy="486.648" r="117.143" fx="605.714" fy="486.648" id="h" xlink:href="#c" gradientUnits="userSpaceOnUse" gradientTransform="matrix(-.03133 0 0 .0206 28.78 49.45)"/><linearGradient id="c"><stop offset="0"/><stop offset="1" stop-opacity="0"/></linearGradient><radialGradient cx="605.714" cy="486.648" r="117.143" fx="605.714" fy="486.648" id="i" xlink:href="#c" gradientUnits="userSpaceOnUse" gradientTransform="matrix(.03133 0 0 .0206 35.22 49.45)"/><linearGradient x1="25.132" y1=".985" x2="25.132" y2="47.013" id="j" xlink:href="#d" gradientUnits="userSpaceOnUse" gradientTransform="matrix(1.31428 0 0 1.26024 .457 -2.18)"/><linearGradient id="d"><stop offset="0" stop-color="#f4f4f4"/><stop offset="1" stop-color="#dbdbdb"/></linearGradient><linearGradient x1="24" y1="5.864" x2="24" y2="42.1" id="k" xlink:href="#e" gradientUnits="userSpaceOnUse" gradientTransform="matrix(1.21622 0 0 1.54054 2.81 -6.973)"/><linearGradient id="e"><stop offset="0" stop-color="#fff"/><stop offset=".012" stop-color="#fff" stop-opacity=".235"/><stop offset=".988" stop-color="#fff" stop-opacity=".157"/><stop offset="1" stop-color="#fff" stop-opacity=".392"/></linearGradient><linearGradient id="f"><stop offset="0" stop-opacity=".318"/><stop offset="1" stop-opacity=".24"/></linearGradient><linearGradient x1="-51.786" y1="50.786" x2="-51.786" y2="2.906" id="l" xlink:href="#f" gradientUnits="userSpaceOnUse" gradientTransform="matrix(1.08435 0 0 1.19974 79.55 -4.163)"/></defs><path opacity=".3" fill="url(#g)" overflow="visible" d="M9.9 57h44.2v5H9.9z"/><path d="M9.9 57v5c-1.613.01-3.9-1.12-3.9-2.5S7.8 57 9.9 57z" opacity=".3" fill="url(#h)" overflow="visible"/><path d="M54.1 57v5c1.613.01 3.9-1.12 3.9-2.5S56.2 57 54.1 57z" opacity=".3" fill="url(#i)" overflow="visible"/><path d="M9 1l46 .004V59H9V1z" fill="url(#j)"/><path d="M54.5 58.5h-45v-57h45z" fill="none" stroke="url(#k)" stroke-linecap="round"/><path d="M8.5.5l47 .004V59.5h-47V.5z" fill="none" stroke="url(#l)" stroke-linejoin="round"/><path d="M43 31.5l-10.926 13L21 31.5h7.5V19.57h7V31.5z" color="#000" fill="#bebebe" stroke="#a0a0a0" stroke-linecap="round" stroke-linejoin="round" overflow="visible"/><path d="M20.806 30.552c-.846.148-1.016 1.314-.362 1.8 3.674 4.3 7.313 8.63 11.008 12.91.6.507 1.362.034 1.698-.538 3.55-4.227 7.115-8.444 10.658-12.678.503-.698-.216-1.686-1.032-1.515z" opacity=".6" color="#000" fill="none" stroke="url(#m)" stroke-linecap="round" overflow="visible"/></svg>
